X:1
T:Title
%%score { ( 1 4 ) | ( 2 3 ) }
L:1/8
Q:1/4=94
M:4/4
K:Ab
V:1 treble nm="Grand Piano"
V:4 treble 
V:2 bass 
V:3 bass 
V:1
 [CA]2 [Ec][DB] [CA]3 [EG] | [DF]2 [FA][DF] [CE]4 | [DF]2 [FA]2 [Fd]3 [Fc] | c4 B4 | %4
w: Robert~Lowry * * * *||||
 [Ec]2 [DB]A F3 A | [=DB]2 [B,FA][DF] [G,E]4 | [A,EA]2 A2 c3 B | [CA]8 | [EB]2 [Ec]2 A3 F | %9
w: |||||
 B2 [=Dc]2 B4 | c2 c2 [Fd]3 [FB] | z2 G2 z4 |] %12
w: |||
V:2
 [A,,A,]2 [A,,A,]2 [A,,A,]3 [C,A,] | [D,A,]2 [D,A,]2 [A,,A,]4 | [D,A,]2 [D,A,]2 [D,A,]3 [=D,A,] | %3
 [E,E]8 | [A,,A,]2 z C [D,A,D]3 [D,F,D] | [B,,F,]2 z A, E,2 D,2 | C,2 [F,A,C]2 [E,G,E]3 [E,G,D] | %7
 [A,,A,]8 | [E,G,]2 [C,G,]2 [F,A,C]3 [F,A,C] | [E,G,E]2 [B,,A,]2 [E,G,E]4 | %10
 [A,E]2 [A,_G]2[K:bass] [D,A,]3 [D,D] | [E,CE]2 .[E,B,E]2 [A,,A,]4 |] %12
V:3
 x8 | x8 | x8 | A,4 G,4 | z2 [A,,A,]2 z4 | z2 B,,2 z4 | x8 | x8 | x8 | x8 | x4[K:bass] x4 | x8 |] %12
V:4
 x8 | x8 | x8 | x8 | x8 | x8 | x8 | x8 | x8 | x8 | x8 | A2 z D [CA]4 |] %12

